X: 57
T: Australian Galopede
B: begged borrowed and stolen
M:2/4
L:1/8
R: polka
Q: 1/4=100
K:Dmajor
V:1 
A|"D" FA/A/ Ad|fe d2|"G" BA Bd|"A" e>f eA|"D" FA/A/ Ad|fe d>c|"G" BA"A" Bc|"D"d2 d:|! e|"D" f2 e2|"D" dA/A/ BA|"G" g2 f2|"A" eA/A/ BA|"D" f2 e2|dA/A/ BA|"G" BA"A" Bc|"D" d2 d:|
% abcbook-tune_id 62828a3a7e0d5d8ba323b83c


% abcbook-boost 0
% abcbook-tablature 
% abcbook-transpose 
% abcbook-lastupdated 1652725431087
% abcbook-soundfonts 
% abcbook-repeats 3
% abc-sessionorg_id 17928
% abc-sessionorg_setting 0
% abc-sessionorg_setting_id 34753
% abc-boost 0

